icons/square/48/visualstudiocode.svg

<?xml version="1.0" encoding="UTF-8" standalone="no"?>
<svg
   xmlns:dc="http://purl.org/dc/elements/1.1/"
   xmlns:cc="http://creativecommons.org/ns#"
   xmlns:rdf="http://www.w3.org/1999/02/22-rdf-syntax-ns#"
   xmlns:svg="http://www.w3.org/2000/svg"
   xmlns="http://www.w3.org/2000/svg"
   xmlns:sodipodi="http://sodipodi.sourceforge.net/DTD/sodipodi-0.dtd"
   xmlns:inkscape="http://www.inkscape.org/namespaces/inkscape"
   id="svg3371"
   height="48"
   width="48"
   version="1.1"
   viewBox="0 0 48 48.000001"
   sodipodi:docname="48.svg"
   inkscape:version="0.92.1 r">
  <defs
     id="defs16" />
  <sodipodi:namedview
     pagecolor="#ffffff"
     bordercolor="#666666"
     borderopacity="1"
     objecttolerance="10"
     gridtolerance="10"
     guidetolerance="10"
     inkscape:pageopacity="0"
     inkscape:pageshadow="2"
     inkscape:window-width="1366"
     inkscape:window-height="694"
     id="namedview14"
     showgrid="true"
     inkscape:zoom="9.8333333"
     inkscape:cx="24"
     inkscape:cy="17.469598"
     inkscape:window-x="0"
     inkscape:window-y="0"
     inkscape:window-maximized="1"
     inkscape:current-layer="svg3371">
    <inkscape:grid
       type="xygrid"
       id="grid4566" />
  </sodipodi:namedview>
  <metadata
     id="metadata3373">
    <rdf:RDF>
      <cc:Work
         rdf:about="">
        <dc:format>image/svg+xml</dc:format>
        <dc:type
           rdf:resource="http://purl.org/dc/dcmitype/StillImage" />
        <dc:title />
      </cc:Work>
    </rdf:RDF>
  </metadata>
  <g
     id="g21"
     transform="translate(0 .000039490)">
    <path
       id="path23"
       style="opacity:0.02"
       d="m1 43v0.25c0 2.216 1.784 4 4 4h38c2.216 0 4-1.784 4-4v-0.25c0 2.216-1.784 4-4 4h-38c-2.216 0-4-1.784-4-4zm0 0.5v0.5c0 2.216 1.784 4 4 4h38c2.216 0 4-1.784 4-4v-0.5c0 2.216-1.784 4-4 4h-38c-2.216 0-4-1.784-4-4z" />
    <path
       id="path25"
       style="opacity:.05"
       d="m1 43.25v0.25c0 2.216 1.784 4 4 4h38c2.216 0 4-1.784 4-4v-0.25c0 2.216-1.784 4-4 4h-38c-2.216 0-4-1.784-4-4z" />
    <path
       id="path27"
       style="opacity:.1"
       d="m1 43v0.25c0 2.216 1.784 4 4 4h38c2.216 0 4-1.784 4-4v-0.25c0 2.216-1.784 4-4 4h-38c-2.216 0-4-1.784-4-4z" />
  </g>
  <rect
     id="rect31"
     style="fill:#e6e6e6;fill-opacity:1"
     rx="4"
     transform="rotate(-90)"
     height="46"
     width="46"
     y="1"
     x="-47.305084" />
  <g
     id="g57"
     transform="translate(0 .000039490)">
    <g
       id="g59"
       transform="translate(0 -1004.4)">
      <path
         id="path61"
         style="opacity:.1"
         d="m1 1043.4v4c0 2.216 1.784 4 4 4h38c2.216 0 4-1.784 4-4v-4c0 2.216-1.784 4-4 4h-38c-2.216 0-4-1.784-4-4z" />
    </g>
  </g>
  <g
     transform="matrix(0.05538515,0,0,0.05468986,12.060949,-1.1650378)"
     style="display:inline;opacity:0.12000002;fill:#000000;fill-opacity:1"
     id="g43">
    <path
       inkscape:connector-curvature="0"
       d="m 17.77,25.295 -6.524,-5.02 -1.414,0.754 v 11.555 l 1.414,0.754 6.523,-5.02 10.914,10.55 4.961,-2.01 v -20.1 l -4.961,-2.01 c 0,0 -7.282,7.03 -10.914,10.55 z m 10.914,6.03 -5.953,-4.522 5.953,-4.522 z m -15.875,-7.285 2.977,2.763 -2.977,2.763 z"
       transform="matrix(18.197551,0,0,18.197551,-161.97138,-18.472825)"
       mix-blend-mode="normal"
       isolation="auto"
       style="color:#000000;white-space:normal;visibility:visible;opacity:1;isolation:auto;mix-blend-mode:normal;color-interpolation:sRGB;color-interpolation-filters:linearRGB;solid-color:#000000;solid-opacity:1;fill-rule:nonzero;stroke:none;color-rendering:auto;image-rendering:auto;shape-rendering:auto"
       id="path41" />
  </g>
  <g
     id="g5169">
    <g
       id="g47"
       style="display:inline;fill:#4b53de;fill-opacity:1"
       transform="matrix(0.05538515,0,0,0.05468986,10.06183,-1.6719938)">
      <path
         id="path45"
         style="color:#000000;white-space:normal;visibility:visible;opacity:1;isolation:auto;mix-blend-mode:normal;color-interpolation:sRGB;color-interpolation-filters:linearRGB;solid-color:#000000;solid-opacity:1;fill-rule:nonzero;stroke:none;stroke-width:18.19755173;color-rendering:auto;image-rendering:auto;shape-rendering:auto"
         isolation="auto"
         mix-blend-mode="normal"
         d="M 179.45562,423.6288 60.734816,332.27709 35.003479,345.99805 v 210.2727 L 60.734816,569.9917 179.43742,478.64 378.0455,670.62416 468.32355,634.04708 V 268.27631 L 378.0455,231.69923 c 0,0 -132.51457,127.92878 -198.60808,191.98416 z M 378.06369,533.36003 269.73367,451.07071 378.06369,368.78138 Z m -288.8861,-132.56916 54.17409,50.27984 -54.17409,50.27983 z"
         inkscape:connector-curvature="0" />
    </g>
  </g>
</svg>

<?xml version="1.0" encoding="UTF-8"?>
<svg width="48" height="48" version="1.1" viewBox="0 0 48 48.000001" xmlns="http://www.w3.org/2000/svg" xmlns:cc="http://creativecommons.org/ns#" xmlns:dc="http://purl.org/dc/elements/1.1/" xmlns:rdf="http://www.w3.org/1999/02/22-rdf-syntax-ns#">
 <metadata>
  <rdf:RDF>
   <cc:Work rdf:about="">
    <dc:format>image/svg+xml</dc:format>
    <dc:type rdf:resource="http://purl.org/dc/dcmitype/StillImage"/>
    <dc:title/>
   </cc:Work>
  </rdf:RDF>
 </metadata>
 <g transform="translate(0 3.949e-5)">
  <path d="m1 43v0.25c0 2.216 1.784 4 4 4h38c2.216 0 4-1.784 4-4v-0.25c0 2.216-1.784 4-4 4h-38c-2.216 0-4-1.784-4-4zm0 0.5v0.5c0 2.216 1.784 4 4 4h38c2.216 0 4-1.784 4-4v-0.5c0 2.216-1.784 4-4 4h-38c-2.216 0-4-1.784-4-4z" style="opacity:.02"/>
  <path d="m1 43.25v0.25c0 2.216 1.784 4 4 4h38c2.216 0 4-1.784 4-4v-0.25c0 2.216-1.784 4-4 4h-38c-2.216 0-4-1.784-4-4z" style="opacity:.05"/>
  <path d="m1 43v0.25c0 2.216 1.784 4 4 4h38c2.216 0 4-1.784 4-4v-0.25c0 2.216-1.784 4-4 4h-38c-2.216 0-4-1.784-4-4z" style="opacity:.1"/>
 </g>
 <rect transform="rotate(-90)" x="-47.305" y="1" width="46" height="46" rx="4" style="fill:#e6e6e6"/>
 <g transform="translate(0 3.949e-5)">
  <g transform="translate(0 -1004.4)">
   <path d="m1 1043.4v4c0 2.216 1.784 4 4 4h38c2.216 0 4-1.784 4-4v-4c0 2.216-1.784 4-4 4h-38c-2.216 0-4-1.784-4-4z" style="opacity:.1"/>
  </g>
 </g>
 <g transform="matrix(.055385 0 0 .05469 11.061 -1.4144)" style="opacity:.12">
  <path transform="matrix(18.198 0 0 18.198 -161.97 -18.473)" d="m17.77 25.295-6.524-5.02-1.414 0.754v11.555l1.414 0.754 6.523-5.02 10.914 10.55 4.961-2.01v-20.1l-4.961-2.01s-7.282 7.03-10.914 10.55zm10.914 6.03-5.953-4.522 5.953-4.522zm-15.875-7.285 2.977 2.763-2.977 2.763z" style="color-rendering:auto;color:#000000;image-rendering:auto;isolation:auto;mix-blend-mode:normal;opacity:1;shape-rendering:auto;solid-color:#000000;white-space:normal" isolation="auto" mix-blend-mode="normal"/>
 </g>
 <g transform="matrix(.055385 0 0 .05469 10.062 -1.672)" style="fill:#4b53de">
  <path d="m179.46 423.63-118.72-91.352-25.731 13.721v210.27l25.731 13.721 118.7-91.352 198.61 191.98 90.278-36.577v-365.77l-90.278-36.577s-132.51 127.93-198.61 191.98zm198.61 109.73-108.33-82.289 108.33-82.289zm-288.89-132.57 54.174 50.28-54.174 50.28z" style="color-rendering:auto;color:#000000;image-rendering:auto;isolation:auto;mix-blend-mode:normal;shape-rendering:auto;solid-color:#000000;white-space:normal" isolation="auto" mix-blend-mode="normal"/>
 </g>
</svg>
